icons/folder_type_mongodb.svg

<svg xmlns="http://www.w3.org/2000/svg" viewBox="0 0 32 32"><defs><linearGradient id="a" x1="-659.847" x2="-666.491" y1="839.557" y2="839.603" gradientTransform="matrix(-.977 -.323 -.29 .877 -378.211 -928.733)" gradientUnits="userSpaceOnUse"><stop offset=".231" stop-color="#999875"/><stop offset=".563" stop-color="#9b9977"/><stop offset=".683" stop-color="#a09f7e"/><stop offset=".768" stop-color="#a9a889"/><stop offset=".837" stop-color="#b7b69a"/><stop offset=".896" stop-color="#c9c7b0"/><stop offset=".948" stop-color="#deddcb"/><stop offset=".994" stop-color="#f8f6eb"/><stop offset="1" stop-color="#fbf9ef"/></linearGradient><linearGradient id="b" x1="-658.764" x2="-668.32" y1="827.72" y2="844.273" gradientTransform="matrix(-.977 -.323 -.29 .877 -378.211 -928.733)" gradientUnits="userSpaceOnUse"><stop offset="0" stop-color="#48a547"/><stop offset="1" stop-color="#3f9143"/></linearGradient><linearGradient id="c" x1="-658.088" x2="-664.862" y1="839.78" y2="835.229" gradientTransform="matrix(-.977 -.323 -.29 .877 -378.211 -928.733)" gradientUnits="userSpaceOnUse"><stop offset="0" stop-color="#41a247"/><stop offset=".352" stop-color="#4ba74b"/><stop offset=".956" stop-color="#67b554"/><stop offset="1" stop-color="#69b655"/></linearGradient></defs><path d="M27.5 5.5h-9.3l-2.1 4.2H4.4v16.8h25.2v-21Zm0 4.2h-8.2l1.1-2.1h7.1Z" style="fill:#458248"/><path d="m26.775 31-.563-.187s.072-2.851-.956-3.05c-.678-.786.1-33.556 2.567-.112a2.033 2.033 0 0 0-1 1.142A10.575 10.575 0 0 0 26.775 31Z" style="fill:url(#a)"/><path d="M27.079 28.247a9.917 9.917 0 0 0 3.748-9.919c-1.1-4.864-3.711-6.463-3.992-7.073a7.321 7.321 0 0 1-.619-1.2l.208 13.552s-.431 4.141.655 4.64Z" style="fill:url(#b)"/><path d="M25.925 28.427S21.334 25.3 21.6 19.769a11.656 11.656 0 0 1 4.139-8.736A1.3 1.3 0 0 0 26.194 10c.286.615.239 9.182.269 10.184.117 3.898-.216 7.507-.538 8.243Z" style="fill:url(#c)"/></svg>

<svg xmlns="http://www.w3.org/2000/svg" xmlns:xlink="http://www.w3.org/1999/xlink" viewBox="0 0 32 32"><defs><linearGradient id="a" x1="-659.847" y1="839.557" x2="-666.491" y2="839.603" gradientTransform="matrix(-0.977, -0.323, -0.29, 0.877, -378.211, -928.733)" gradientUnits="userSpaceOnUse"><stop offset="0.231" stop-color="#999875"/><stop offset="0.563" stop-color="#9b9977"/><stop offset="0.683" stop-color="#a09f7e"/><stop offset="0.768" stop-color="#a9a889"/><stop offset="0.837" stop-color="#b7b69a"/><stop offset="0.896" stop-color="#c9c7b0"/><stop offset="0.948" stop-color="#deddcb"/><stop offset="0.994" stop-color="#f8f6eb"/><stop offset="1" stop-color="#fbf9ef"/></linearGradient><linearGradient id="b" x1="-658.764" y1="827.72" x2="-668.32" y2="844.273" gradientTransform="matrix(-0.977, -0.323, -0.29, 0.877, -378.211, -928.733)" gradientUnits="userSpaceOnUse"><stop offset="0" stop-color="#48a547"/><stop offset="1" stop-color="#3f9143"/></linearGradient><linearGradient id="c" x1="-658.088" y1="839.78" x2="-664.862" y2="835.229" gradientTransform="matrix(-0.977, -0.323, -0.29, 0.877, -378.211, -928.733)" gradientUnits="userSpaceOnUse"><stop offset="0" stop-color="#41a247"/><stop offset="0.352" stop-color="#4ba74b"/><stop offset="0.956" stop-color="#67b554"/><stop offset="1" stop-color="#69b655"/></linearGradient></defs><title>folder_type_mongodb</title><path d="M27.5,5.5H18.2L16.1,9.7H4.4V26.5H29.6V5.5Zm0,4.2H19.3l1.1-2.1h7.1Z" style="fill:#458248"/><path d="M26.775,31l-.563-.187s.072-2.851-.956-3.05c-.678-.786.1-33.556,2.567-.112a2.033,2.033,0,0,0-1,1.142A10.575,10.575,0,0,0,26.775,31Z" style="fill:url(#a)"/><path d="M27.079,28.247a9.917,9.917,0,0,0,3.748-9.919c-1.1-4.864-3.711-6.463-3.992-7.073a7.321,7.321,0,0,1-.619-1.2l.208,13.552S25.993,27.748,27.079,28.247Z" style="fill:url(#b)"/><path d="M25.925,28.427S21.334,25.3,21.6,19.769a11.656,11.656,0,0,1,4.139-8.736A1.3,1.3,0,0,0,26.194,10c.286.615.239,9.182.269,10.184C26.58,24.082,26.247,27.691,25.925,28.427Z" style="fill:url(#c)"/></svg>
